svgs/light/chart-scatter.svg

<svg xmlns="http://www.w3.org/2000/svg" viewBox="0 0 512 512"><!--! Font Awesome Pro 6.0.0-alpha3 by @fontawesome - https://fontawesome.com License - https://fontawesome.com/license (Commercial License) --><path d="M288 280c13.25 0 24-10.75 24-24S301.3 232 288 232S264 242.8 264 256S274.8 280 288 280zM384 344c13.25 0 24-10.75 24-24S397.3 296 384 296S360 306.8 360 320S370.8 344 384 344zM416 152c13.25 0 24-10.75 24-24S429.3 104 416 104S392 114.8 392 128S402.8 152 416 152zM160 344c13.25 0 24-10.75 24-24S173.3 296 160 296S136 306.8 136 320S146.8 344 160 344zM192 184c13.25 0 24-10.75 24-24S205.3 136 192 136S168 146.8 168 160S178.8 184 192 184zM496 448h-416C53.53 448 32 426.5 32 400v-352C32 39.16 24.84 32 16 32S0 39.16 0 48v352C0 444.1 35.88 480 80 480h416c8.844 0 16-7.156 16-16S504.8 448 496 448z"/></svg>

<svg xmlns="http://www.w3.org/2000/svg" viewBox="0 0 512 512"><!--! Font Awesome Pro 6.4.2 by @fontawesome - https://fontawesome.com License - https://fontawesome.com/license (Commercial License) Copyright 2023 Fonticons, Inc. --><path d="M32 48c0-8.8-7.2-16-16-16S0 39.2 0 48V400c0 44.2 35.8 80 80 80H496c8.8 0 16-7.2 16-16s-7.2-16-16-16H80c-26.5 0-48-21.5-48-48V48zM192 184a24 24 0 1 0 0-48 24 24 0 1 0 0 48zm120 72a24 24 0 1 0 -48 0 24 24 0 1 0 48 0zm72 88a24 24 0 1 0 0-48 24 24 0 1 0 0 48zm56-216a24 24 0 1 0 -48 0 24 24 0 1 0 48 0zM160 344a24 24 0 1 0 0-48 24 24 0 1 0 0 48z"/></svg>
